X:4
T:Scottishe
R:Scottish
N:morceau soumis  droit d'auteur : n'est jamais jou en bal (seulement rptitions)
O:
Z:anamnese@caramail.com
M:C
L:1/8
Q:1/4=135
K:C
e2e2d2d2 | c2c2B4 | ABcA BdcB | cBAc B4 |
e2e2d2d2 | c2c2B4 | ABcA BdcB | A2G2 A4 ::
ABcAB4 | BcdBc4 | edcB ABcA | BdcB c2A2 |
ABcAB4 | BcdBc4 | edcB ABcA | BdcB A4 :|
